www/assets/icons/report.svg

<svg xmlns="http://www.w3.org/2000/svg" width="24" height="24" viewBox="0 0 24 24" fill='currentColor'><path d="M15.73 3H8.27L3 8.27v7.46L8.27 21h7.46L21 15.73V8.27zM12 17.3c-.72 0-1.3-.58-1.3-1.3s.58-1.3 1.3-1.3 1.3.58 1.3 1.3-.58 1.3-1.3 1.3m1-4.3h-2V7h2z"/></svg>

<svg width="24" height="24" viewBox="0 0 24 24" xmlns="http://www.w3.org/2000/svg" fill='currentColor'><path d="M15.73 3H8.27L3 8.27V15.73L8.27 21H15.73L21 15.73V8.27L15.73 3ZM12 17.3C11.28 17.3 10.7 16.72 10.7 16C10.7 15.28 11.28 14.7 12 14.7C12.72 14.7 13.3 15.28 13.3 16C13.3 16.72 12.72 17.3 12 17.3ZM13 13H11V7H13V13Z"/></svg>
